assets/icons/qvision/hvac.svg

<svg width="24" height="24" viewBox="0 0 24 24" fill="none" xmlns="http://www.w3.org/2000/svg">
<g clip-path="url(#clip0_147_5332)">
<path d="M11.9999 16C13.0099 16 13.9099 15.61 14.6199 15H9.37988C10.0899 15.61 10.9899 16 11.9999 16Z" fill="#323232"/>
<path d="M8.56006 14H15.4501C15.7101 13.55 15.8901 13.04 15.9601 12.5H8.06006C8.12006 13.04 8.29006 13.55 8.56006 14Z" fill="#323232"/>
<path d="M11.9999 8C10.9899 8 10.0899 8.39 9.37988 9H14.6199C13.9099 8.39 13.0099 8 11.9999 8Z" fill="#323232"/>
<path d="M8.5598 10C8.2998 10.45 8.1198 10.96 8.0498 11.5H15.9498C15.8798 10.96 15.7098 10.45 15.4398 10H8.5598Z" fill="#323232"/>
<path d="M19 3H5C3.9 3 3 3.9 3 5V19C3 20.1 3.9 21 5 21H19C20.1 21 21 20.1 21 19V5C21 3.9 20.1 3 19 3ZM12 18C8.69 18 6 15.31 6 12C6 8.69 8.69 6 12 6C15.31 6 18 8.69 18 12C18 15.31 15.31 18 12 18Z" fill="#323232"/>
</g>
<defs>
<clipPath id="clip0_147_5332">
<rect width="24" height="24" fill="white"/>
</clipPath>
</defs>
</svg>

<svg xmlns="http://www.w3.org/2000/svg" enable-background="new 0 0 24 24" height="24" viewBox="0 0 24 24" width="24"><g><rect fill="none" height="24" width="24"/></g><g><g><g><path d="M12,16c1.01,0,1.91-0.39,2.62-1H9.38C10.09,15.61,10.99,16,12,16z"/></g><g><path d="M8.56,14h6.89c0.26-0.45,0.44-0.96,0.51-1.5h-7.9C8.12,13.04,8.29,13.55,8.56,14z"/></g><g><path d="M12,8c-1.01,0-1.91,0.39-2.62,1h5.24C13.91,8.39,13.01,8,12,8z"/></g><g><path d="M8.56,10c-0.26,0.45-0.44,0.96-0.51,1.5h7.9c-0.07-0.54-0.24-1.05-0.51-1.5H8.56z"/></g><g><path d="M19,3H5C3.9,3,3,3.9,3,5v14c0,1.1,0.9,2,2,2h14c1.1,0,2-0.9,2-2V5C21,3.9,20.1,3,19,3z M12,18c-3.31,0-6-2.69-6-6 s2.69-6,6-6s6,2.69,6,6S15.31,18,12,18z"/></g></g></g></svg>
